!!!SOCIAL_FUNCTION:	songs with hunting dance
!!!PDT:	1956
!!!OTL: No_52_Cow_Creek_Hunting_Dance_Song_(s).krn
!!!LANG: Non-Tone
!!!LING_GROUP: Muskogean
!!!REG: Florida
**kern
*staff1
=1-
*clefF4
*k[b-]
*M2/4
4c\
8c\L
8A\J
=2||
*M3/4
2.c\
=3||
*M2/4
(8c\L
8A\J)
(8c\L
8A\J)
=4
8B-\L
8A\J
8A\L
8F\J
=5||
*M3/4
8A\
8r
4F\
4F\
=6!|:
4c\
8c\L
8B-\J
8A\L
8F\J
=7||
*M2/4
[2B-\
=8
4B-\_
8B-\L]
8A\J
=9
4F\
4B-\
=10||
*M3/4
8B-\L
8A\J
8B-\L
8A\J
8A\L
8F\J
=11||
*M2/4
8A\
8r
4F\
=12
4F\
4r
=13
8C/L
8C/J
8F\L
8F\J
=14
4.F\
16E\
16r
=15
2F\
=16
4F\
8A\L
8F\J
=17
4B-\
8.A\L
16F\Jk
=18||
*M3/4
4A\
4F\
4F\
==:|!
*-
